X: 2300
T: Bacon Allocation, The
R: reel
M: 4/4
K: Eminor
|:"Em" B,E GE "Bm7" FA (3BBB|BA FA dB ^cA|
"Em"B,E GE "Bm7" FA (3BBB|1 BA FD "Cmaj7"E4:|2 BA FD "Cmaj7"E2 E^D
|:"G" DG Bd"B7" ^dB df|"Em"ge (3eee "A7"e^c AE|
"Am7" G3 B"D7" A2 G A|1 "G" BD GB "D"A2 GE:|2 "G"BD GB "B7"AF ^DB,||

